!!!OTL-incipit: Es geht nix ueber die Gemuetlichkeit, heidi, heida
!!!ARE: Europa, Mitteleuropa, Deutschland, Ober - Franken, Zochenreuth
!!!SCT: V0002E
!!!TXL: @@BAR
!!!YEM: Copyright 1995, estate of Helmut Schaffrath.
**kern	**text
*ICvox	*
*M2/4	*
*k[f#c#g#d#]	*
*E:	*
{8B	Es
=1	=1
8e	gibt
8e	nix
16e	Ӯ-
16e	-ber
16f#	die
16e	Ge-
=2	=2
8d#	-mӮt-
8c#	-lich-
8c#	-keit,
8a	hei-
=3	=3
4d#	-di,
8r	.
8B	hei-
=4	=4
4e	-da,
8r}	.
{16B	ha-
16B	-ben
=5	=5
8e	wir
8e	kein
16e	Geld,
16e	dann
16f#	habn's
16e	die
=6	=6
8d#	an-
8c#	-dren
8c#	Leut,
8a	hei-
=7	=7
4e	-di,
8r	.
8B	hei-
=8	=8
4e	-da.
8r}	.
{16g#	Fi-
16a	-di-
=9	=9
8b	-ri,
16g#	fi-
16a	-di-
8b	-ra,
16a	fi-
16b	-di-
=10	=10
8cc#	-ral-
8f#	-la-
8f#	-la,
16f#	fi-
16g#	-di-
=11	=11
8a	-ri,
16f#	fi-
16g#	-di-
8a	-ra,
16g#	fi-
16a	-di-
=12	=12
8b	-ral-
8e	-la-
8e	-la,
8g#	[ei-
=13	=13
4e	-ja,]
8r	.
8b	ja
=14	=14
4e	so.
8r}	.
==	==
!!!AGN: Geselligkeits - Lied, Gemuetlichkeit
!!!ONB: ESAC (Essen Associative Code) Database: VARIANT
!!!AMT: simple duple
!!!AIN: vox
!!!EED: Helmut Schaffrath
!!!EEV: 1.0
!!!GTL: Gemuetlichkeit
!!!source: Heigl, U.; Liertz, M. J.. et al.: Registeer un Beispielsammlung zu den Forschungsexkursionen des Instituts fӮr Volkskunde nach Oberfranken. Maschinenschriftliches Manuskript, MӮnchen 1982.
!!!page: 83
!!!ENC: Anna Maria Matuszewska
!!!EEV: 2025/04/01
*-	*-
